frontend/public/svg/interface/tablet.svg

<svg width="138" height="170" viewBox="0 0 138 170" fill="none" xmlns="http://www.w3.org/2000/svg">
<g clip-path="url(#clip0)">
<path d="M1.96524 89.0914C1.84252 73.1224 1.64057 57.1527 1.63148 41.1837C1.62759 33.4176 1.92171 25.6389 3.50663 17.9954C4.74028 12.0337 7.67895 7.08742 13.1258 4.07222C15.1011 2.98159 17.2689 2.28318 19.5096 2.0154C29.1727 0.894481 38.8981 0.399856 48.6251 0.534249C66.5558 0.87425 84.4892 0.622926 102.419 0.232316C108.801 0.148267 115.162 0.985528 121.305 2.71811C122.032 2.91277 122.76 3.12371 123.469 3.37806C131.357 6.20188 135.508 11.1577 135.588 19.4695C135.612 22.0474 135.793 24.6234 135.899 27.2007C136.328 37.5454 136.973 47.8868 137.137 58.2361C137.471 79.2775 137.741 100.324 137.628 121.37C137.582 129.974 136.595 138.583 135.804 147.169C135.334 152.285 133.313 156.958 130.597 161.307C129.715 162.715 128.517 163.899 127.099 164.765C125.681 165.632 124.08 166.156 122.423 166.297C119.411 166.557 116.41 166.974 113.394 167.126C102.278 167.686 91.1399 167.905 80.0468 168.732C61.7881 170.094 43.5333 168.899 25.2792 169.056C20.9881 169.094 16.6515 168.64 12.6486 166.656C9.94925 165.282 7.67843 163.195 6.08302 160.621C2.30285 154.888 0.9848 148.534 1.06791 141.851C1.20621 130.737 1.58735 119.626 1.7659 108.512C1.87044 102.04 1.78473 95.565 1.78473 89.0914H1.96524ZM127.314 136.652C127.573 132.616 128.051 128.76 128.032 124.908C127.903 97.2722 127.778 69.6355 127.397 42.003C127.355 34.9812 126.525 27.9866 124.923 21.1497C124.409 18.9332 123.219 16.9309 121.517 15.4196C119.465 13.4588 116.821 12.2331 113.998 11.9345C106.364 11.2208 98.7229 10.4368 91.0665 10.1293C84.9249 9.88269 78.7566 10.328 72.5994 10.4046C61.031 10.548 49.4582 10.5169 37.8943 10.8218C32.5052 10.9633 27.1161 11.6075 21.7562 12.2317C17.504 12.7267 15.1029 15.5279 13.9271 19.449C13.5146 20.7913 13.2533 22.1753 13.1479 23.5755C12.6557 30.8972 11.9175 38.2217 11.8747 45.5486C11.8065 57.2026 12.4071 68.8595 12.385 80.5148C12.3532 97.3546 12.0149 114.19 11.8136 131.033C11.7909 132.944 11.8136 134.856 11.8136 137.052C15.6444 137.188 19.1934 137.462 22.7353 137.412C36.7892 137.213 50.8411 136.772 64.895 136.684C85.543 136.558 106.191 136.654 127.314 136.654V136.652ZM126.261 144.278C121.716 144.166 117.415 144.007 113.112 143.964C100.355 143.837 87.5967 143.737 74.8375 143.665C64.2418 143.612 53.6454 143.714 43.0516 143.6C34.5186 143.508 25.9876 143.215 17.4572 142.961C15.562 142.905 13.6733 142.637 11.5929 142.45C11.2433 145.653 11.5243 148.893 12.4201 151.988C13.7608 156.31 16.4697 158.943 21.2854 159.085C31.4416 159.385 41.5946 159.777 51.7476 160.16C55.0946 160.287 58.4352 160.59 61.7829 160.659C66.3188 160.752 70.8561 160.761 75.3946 160.685C79.1741 160.615 82.953 160.159 86.7266 160.217C97.3373 160.379 107.886 160.015 118.263 157.525C120.372 157.019 122.497 156.632 123.711 154.475C125.428 151.354 126.307 147.841 126.261 144.28V144.278Z" fill="black"/>
<path d="M73.5062 151.428C73.1997 153.338 72.3732 155.164 70.3487 156.177C69.4806 156.637 68.4943 156.828 67.5171 156.727C66.5393 156.626 65.6136 156.236 64.8579 155.608C63.1101 154.294 62.7153 152.437 63.1614 150.382C63.316 149.527 63.7477 148.747 64.3897 148.161C65.0318 147.576 65.8485 147.219 66.714 147.143C67.4581 147.043 68.2073 146.953 68.9547 146.904C71.5966 146.733 73.5555 148.594 73.5062 151.428Z" fill="black"/>
</g>
<defs>
<clipPath id="clip0">
<rect width="137" height="170" fill="white" transform="translate(0.777344)"/>
</clipPath>
</defs>
</svg>

<svg xmlns="http://www.w3.org/2000/svg" width="138" height="170" fill="none" viewBox="0 0 138 170"><g fill="#000" clip-path="url(#a)"><path d="M1.965 89.091c-.122-15.969-.324-31.938-.334-47.907-.003-7.766.29-15.545 1.876-23.189C4.74 12.034 7.679 7.087 13.126 4.072a17.5 17.5 0 0 1 6.384-2.057A226 226 0 0 1 48.625.535c17.93.34 35.864.088 53.794-.303a66.4 66.4 0 0 1 18.886 2.486c.727.195 1.455.406 2.164.66 7.888 2.824 12.039 7.78 12.119 16.092.024 2.577.205 5.153.311 7.73.429 10.345 1.074 20.687 1.238 31.036.334 21.042.604 42.088.491 63.134-.046 8.604-1.033 17.213-1.824 25.799-.47 5.116-2.491 9.789-5.207 14.138a10.72 10.72 0 0 1-8.174 4.99c-3.012.26-6.013.677-9.029.829-11.116.56-22.254.779-33.347 1.606-18.259 1.362-36.514.167-54.768.324-4.29.038-8.628-.416-12.63-2.4a16.56 16.56 0 0 1-6.566-6.035c-3.78-5.733-5.098-12.087-5.015-18.77.138-11.114.52-22.225.698-33.339.104-6.472.019-12.947.019-19.42zm125.349 47.561c.259-4.036.737-7.892.718-11.744-.129-27.636-.254-55.273-.635-82.905a94 94 0 0 0-2.474-20.853 11 11 0 0 0-3.406-5.73 12.84 12.84 0 0 0-7.519-3.485c-7.634-.714-15.275-1.498-22.931-1.806-6.142-.246-12.31.199-18.468.276-11.568.143-23.14.112-34.705.417-5.389.141-10.778.786-16.138 1.41-4.252.495-6.653 3.296-7.829 7.217a19 19 0 0 0-.78 4.127c-.491 7.321-1.23 14.646-1.272 21.973-.069 11.654.532 23.31.51 34.966-.032 16.84-.37 33.675-.571 50.518-.023 1.911 0 3.823 0 6.019 3.83.136 7.38.41 10.921.36 14.054-.199 28.106-.64 42.16-.728 20.648-.126 41.296-.03 62.419-.03zm-1.053 7.626c-4.545-.112-8.846-.271-13.149-.314a8877 8877 0 0 0-38.274-.299c-10.596-.053-21.193.049-31.786-.065-8.533-.092-17.064-.385-25.595-.639-1.895-.056-3.784-.324-5.864-.511a24.7 24.7 0 0 0 .827 9.538c1.34 4.322 4.05 6.955 8.865 7.097 10.157.3 20.31.692 30.463 1.075 3.347.127 6.687.43 10.035.499q6.804.14 13.612.026c3.78-.07 7.558-.526 11.332-.468 10.61.162 21.159-.202 31.536-2.692 2.109-.506 4.234-.893 5.448-3.05a20.6 20.6 0 0 0 2.55-10.195z"/><path d="M73.506 151.428c-.306 1.91-1.133 3.736-3.157 4.749a4.96 4.96 0 0 1-5.491-.569c-1.748-1.314-2.143-3.171-1.697-5.226a3.96 3.96 0 0 1 3.553-3.239c.744-.1 1.493-.19 2.24-.239 2.643-.171 4.602 1.69 4.552 4.524"/></g><defs><clipPath id="a"><path fill="#fff" d="M.777 0h137v170h-137z"/></clipPath></defs></svg>
